resources/svg/minor-passkey.svg

<svg xmlns="http://www.w3.org/2000/svg" viewBox="0 0 20 20" fill="currentColor"><path fill-rule="evenodd" d="M16.6945 12.1334C16.3969 12.3459 16.3035 12.792 16.562 13.0505C16.8653 13.3538 16.8653 13.8454 16.562 14.1487L16.4444 14.2663C16.0763 14.6345 16.0763 15.2314 16.4444 15.5996C16.8126 15.9678 16.8126 16.5647 16.4444 16.9329L15.6869 17.6905C15.4916 17.8858 15.175 17.8858 14.9798 17.6905L13.8484 16.5592C13.6609 16.3716 13.5556 16.1173 13.5556 15.8521V12.4113C12.5045 11.912 11.7778 10.8407 11.7778 9.59961C11.7778 7.88139 13.1707 6.48849 14.8889 6.48849C16.6071 6.48849 18 7.88139 18 9.59961C18 10.6446 17.4848 11.5693 16.6945 12.1334ZM14.8889 8.26627C15.3798 8.26627 15.7778 8.66424 15.7778 9.15516C15.7778 9.64608 15.3798 10.044 14.8889 10.044C14.398 10.044 14 9.64608 14 9.15516C14 8.66424 14.398 8.26627 14.8889 8.26627Z" fill="#5C5F62"/><path d="M10.7017 11.0931C10.0031 10.9296 9.1829 10.8342 8.22222 10.8342C3.16667 10.8342 2 13.4757 2 14.7848C2 16.0939 3.04467 17.1552 4.33333 17.1552H12.1111C12.1484 17.1552 12.1854 17.1543 12.2222 17.1525V13.1552C11.5324 12.637 10.9975 11.9221 10.7017 11.0931Z" fill="#5C5F62"/><path d="M8 9C9.65685 9 11 7.65685 11 6C11 4.34315 9.65685 3 8 3C6.34315 3 5 4.34315 5 6C5 7.65685 6.34315 9 8 9Z" fill="#5C5F62"/></svg>

<svg xmlns="http://www.w3.org/2000/svg" viewBox="0 0 20 20" fill="currentColor"><path fill-rule="evenodd" d="M16.695 12.133c-.298.213-.392.659-.133.918a.776.776 0 0 1 0 1.098l-.118.117a.943.943 0 0 0 0 1.334.943.943 0 0 1 0 1.333l-.757.758a.5.5 0 0 1-.707 0l-1.132-1.132a1 1 0 0 1-.292-.707v-3.44a3.111 3.111 0 1 1 3.139-.279Zm-1.806-3.867a.889.889 0 1 1 0 1.778.889.889 0 0 1 0-1.778Z"/><path d="M10.702 11.093c-.699-.163-1.52-.259-2.48-.259-5.055 0-6.222 2.642-6.222 3.95 0 1.31 1.045 2.371 2.333 2.371h7.778c.037 0 .074 0 .111-.003v-3.997a4.456 4.456 0 0 1-1.52-2.062Z"/><path d="M8 9a3 3 0 1 0 0-6 3 3 0 0 0 0 6Z"/></svg>
